X: 822
T: Lady Mary Menzies Reel
R: reel
B: Robert Bremner "A Collection of Scots Reels or Country Dances" 1757 p.82 #2
S: http://imslp.org/wiki/A_Collection_of_Scots_Reels_or_Country_Dances_(Bremner,_Robert)
Z: 2013 John Chambers <jc:trillian.mit.edu>
N: It's not clear why this tune has a Lydian key signature; it uses a normal major scale.
M: C
L: 1/8
K: Flyd
% - - - - - - - - - - - - - - - - - - - - - - - - -
V: 1
(f |\
c)FAF cFfd | cFAF dGGA |\
cFcA cFag | fdcA cFF :|
|: (e |\
f)cce f>gag | fdTcA gdd(e |\
f)dcA (f/e/f/g/ a)g | fdTcA cFF :|
% - - - - - - - - - - - - - - - - - - - - - - - - -
V: 2 clef=bass middle=d
z |\
f2f2 f2f2 | f2f2 g2g2 |\
f2f2 f2f2 | _B2c2 F2F :|\
|: z |
f2f2 f2f2 | f2f2 g2g2 |\
f2f2 f2f2 | _B2c2 F2F :|
% - - - - - - - - - - - - - - - - - - - - - - - - -

%%sep 1 1 500
%%sep 1 1 500
